t1 $ whenmod 6 3 (slow 2) $ every 2 (0.125 <~) $ every 3 (0.25 <~) $ every 4 (0.5 <~) $ off "<0.125 0.25 0.5>" (# lpf 8000) $ sound "tozabb*8" # n (irand 5) # pan (scale 0.0 1.0 saw) # speed (scale 0.0 1.0 rand) # delay (scale 0.0 0.5 $ slow 2 $ sine) # legato "<0.5 0.2>"

hush
