d1 $ stack [
sound "bd*4"
]
# pan (scale 0.0 1.0 $ slow 4 saw)
# gain (scale 0.99 1.0 rand)
# delay "0.1"
# delayfeedback "0.0"
# delaytime "0.0"
# room "0.0"
# speed "1.0"d
# shape (scale 0.01 1.0 square)

hush
