t1 $ sound "tozabb*2" # n "<0 0>"

t2 $ every 4 (0.25 <~) $ sound "tozabc*2" # n "<3>" # cut 500 # cutoff 1000 # delay 0.1 # resonance 0.2

t3 $ every 3 (slow 2) $ sound "tozabd" # gain 0.8 # pan (scale 0.0 1.0 $ slow 2 $ sine) # legato 0.5

t4 $ stut' 4 (125/5) (slow 2) $ sound "tozabe*8" # gain (scale 0.65 0.65 rand) # pan rand # cutoff "<1000 2000>"

solo $
t5 $ slow 2 $ sound "tozabh/2"

hush
