t1 $ whenmod 6 3 (slow 3) $ jux (# speed 3)$ stut' 2 (125/4) (# speed 3) $ every 3 (iter 4) $ every 4 (slow 2) $ every 5 (# up 2) $ every 6 (0.5 <~) $ sound "tozabb*8" # n (irand 1) # pan (scale 0.0 1.0 $ iter 4 $ sine) # speed (scale 0.4 1.0 rand) # delay (scale 0.0 1.0 rand) # lpf 5000 # lpq 0.2

hush
