d1 $ slow 3 $ n "0(3,8,<0 2>)" # sound "tozas" # pan (scale 0.0 1.0 sine) # gain "0.8" # shape "0.01" # delayfeedback "1.0"

d2 $ stut' 2 (0.125/4) (# speed 2) $ jux (iter 4) $ every 5 (spin 2) $ every 4 (0.25 <~) $ every 3 (# up 3) $ every 2 (slow 2) $ n "1(3,8) 0*2" # sound "tozabb" # speed 2 # gain "0.95" # shape "0.03"

d3 $ stut' 3 (0.125/4) (# speed 2) $ jux (iter 2) $ every 3 (# crush 4) $ sound "tozabb(3,8,<0 1>)" # n (irand 3) # pan (scale 0 1.0 rand) # shape "0.1" # delayfeedback "1.0"

d4 $ stut' 3 (0.125/4) (# speed 5) $ sound "supersaw" # speed "5"　# cut "5" # delay "0.5"

hush
