t1 $ sound "tozaba*8" # n (scale 0 10 sine) # delay (scale 0.0 1.0 $ slow 2 $ rand) # gain "0.95 0.8 0.75 0.95" # legato "<0.5 0.25>" # pan (scale 0.5 0.5 sine)  # shape (scale 0.0 0.21 rand)

t2 $ sound "tozabd*4" # n (scale 3 4 rand) # cutoff "<500 1000 4000>" # resonance "<0.4>" # legato "<0.25 0.15>" # gain "1.0 0.9 0.8 1.0" # pan (scale 0.0 1.0 sine)

t3 $ every 2 (fast 2) $ every 3 (0.25 <~) $ sound "tozabc*2 tozaba:1*2" # n "<3 4 5>" # end (slow 2 $ sine * 0.04) # pan (scale 0.0 1.0 sine)

t4 $ off 0.25 (# crush 3 ) $ n (shuffle 4 "0 4") # sound "tozabe" # gain "0.9 0.8 0.75 0.9" # legato "<0.25>" # pan (scale 0.0 1.0 rand)

hush
