d1 $ foldEvery [3,4] (0.25 <~)
$ stack [
sound "~ kyoma" # n (irand 5)
]
# pan (scale 0.0 1.0 rand)
# pan (scale 0.0 1.0 $ slow 1 $ sine)
# gain (scale 0.99 1.0 $ slow 2 $ saw)
# delay "0.2"
# delayfeedback "0.0"
# delaytime "0.0"
# room "0.1"
# speed "1"
# shape (scale 0.1 0.5 rand)
# vowel "[a, i, e, o]"

hush
