t1 $ stack[
note (off 0.125 (+12) $ off 0.25 (+7) $ "<c(3,8) e*2 f(3,8,2) g*2>") # sound "~  tozabd:1 ~"
# gain 0.85
# legato 4
# lpf 8000
# lpq 0.1
# orbit 1
# room 0.3,
sound "tozabb(3,8,<0 1>)" # n "1 1 0 1",
every 4 (0.25 <~) $ sound "tozabb(5,8)" # n "10 10 10 10"
]
# pan "<0.5>"
# delay "0.25"

hush
