t1 $ foldEvery [3,4] (chop 3) $ every 4 (slow 2) $ degrade $ jux rev $ off "0.25 0.125 0.5" (# lpf 5000) $ sound "tozaba*8" # n (irand 5) # pan (scale 0.0 1.0 rand) # speed (scale 0.0 1.0 rand) # delay (scale 0.0 1.0 sine)d

hush
