t1 $ sound "tozabb*8" # n "<0 0 0 0 0 0 10 10 10 10 10>" # pan (scale 0.0 1.0 $ slow 3 $ sine) # delay (scale 0.0 1.0 $ slow 2 $ rand) # gain "1.3"

t2 $ sound "tozabd" # n "<1>" # pan (scale 0.0 1.0 $ slow 3 $ rand) # delay (scale 0.0 1.0 $ slow 4 $ sine) # cutoff "<4000>" # resonance "<0.2>" # legato "<1.0 0.75>"

hush
