t1 $ whenmod 8 4 (# speed "<1 4>") $ off "<0.1 0.5>" (# speed "<0.5>") $ stut' 4 (0.2/4) (# speed "<0.1 0.5>")$ sound "tozabb*8" # n "<0 1>" # pan (scale 0.0 1.0 saw) # speed (scale 0.0 1.0 $ slow 4 $ sine) # delay (scale 0.5 0.6 sine) # legato "<0.5>"

hush
