t1 $ sound "tozabb*2" # gain 1.4 # n (irand 1)

t2 $ every 4 (slow 2) $ sound "tozabd:3" # gain 1.3

t3 $ sound "tozabe*8" # gain 0.9 # n (irand 2) # delay (scale 0.0 0.5 rand) # delayfeedback (scale 0.1 1.0 sine)

t4 $ stut' 4 (125/5) (slow 2) $ every 4 (0.5 <~) $ sound "tozabe*8" # n (irand 5) # pan saw # gain "<0.9 0.8 0.7 0.9>" # lpf 500 # lpq 0.1 # room 0.1 # legato "<0.5>"

t5 $ slow 4 $ sound "tozabh" # n (irand 3) # gain "1.2" # lpf 2000 # lpq 0.2 # room 0.2 # vowel "a e i o u"

hush
