d1 $ every 3 (gap 2) $ every 4 (chop 4) $ foldEvery [3,4] (0.25 <~) $ stack [
sound "tozas:1" # gain "0.85" # speed "1.0",
whenmod 5 3 (jux (iter 4)) $ stut' 8 (0.125/2) (|*| gain "0.8") $ sound "tozab" # speed 2,
stut' 4 (0.125/2) (|*| speed "1.5") $ slow 2 $ sound "saw/5" |+| speed "0.5" |+| cut "3" # delay "0.5",
sometimes (fast 2) $ sound (samples "tozabb*8?" (fast 8 $ run 15)) # cut "1" # speed "[1 2]*3" # shape "0.001" # delayfeedback "1.0"
]

hush
