t1 $ foldEvery [2,6] (# up 2) $ whenmod 6 3 (slow 2) $ stut' 4 (0.125/3) (slow 2) $ every 3 (# crush 3) $ every 4 (# speed 5) $ every 5 (0.25 <~) $ every 6 (chop 3) $ jux (iter 4) $ slow 2 $ spin 3 $ (# speed 3) $ (0.25 <~) $ slow 2 $ sound "tozab2*8 tozabb*8" # n (sine * 8) # speed (scale 6 9 $ saw)

hush
