t1 $ distrib [3, 8, 16] $ note "0 1 2 3 4 5 6" # s "supersquare super808 supersaw" # pan (scale 1.0 0.0 $ slow 16 $ sine) # nudge (scale 0.4 0.5 $ slow 16 $ saw) # lpf (scale 300 1000 $ slow 64 $ sine) # lpq (scale 0.12 0.18 sine)

hush
