t1 $ note "0 7 3 12" # s "super808" # n (sine * 16) # pan (scale 0.0 1.0 $ slow 8 $ sine) # nudge (scale 0.5 0.4 $ slow 16 $ sine) # lpf (scale 5000 8000 $ slow 32 $ sine) # resonance (scale 0.2 0.35 $ slow 18 $ sine)
