t1 $ foldEvery [3,4] (iter 4) $ stut' 4 (125/4) (# up 2) $ sound "tozaba*8" # n (irand 5) # pan (scale 0.0 1.0 $ slow 4 $ saw) # speed (scale 0.0 1.0 $ slow 5 $ saw) # delay (scale 0.0 0.1 $ slow 6 $ saw) # legato (scale 1 0.5 $ sine) # orbit 3 # lpf 5000

hush
