d1 $ stack [

]
# pan (scale 0.0 1.0 rand)
# gain (scale 0.99 1.0 $ slow 2 $ sine)
# delay "1.0"
# delayfeedback "0.0"
# delaytime "0.0"
# room "0.1"
# speed "1.0"
# shape (scale 0.01 0.02 rand)
-- # vowel "[a, i, e, o]"

hush
  
