t1 $ sound "tozabb*4" # n "<1 5 10>" # pan (scale 0.0 1.0 rand) # delay (scale 0.0 1.0 $ slow 2 $ rand) # gain "1.2" # speed (scale 1.0 1.5 $ slow 4 $ sine)

t2 $ sound "tozabb*2" # n "<0>" # delay (scale 0.0 1.0 $ slow 4 $ rand) # cutoff "<4000>" # resonance "<0.2>" # legato "<1.0 0.75>" # gain "1.3"

t3 $ degradeBy 0.5 $ sometimes (|+| n "-12") $ every 3 (0.25 <~) $ jux (rev) $ slow 2 $ off 0.25 (# s "pulse") $ n (off 0.125 (+5) $ off 0.25 (+7) $ slow 2 "d5 e6 a6 c6") # sound "tozabf" # gain "0.75" # cutoff "3000" # legato "0.25 0.5"

hush
