t1 $ sound "tozabb*4" # n "<0 0 5 5 0 0 10 10 10 10 10>" # pan (scale 0.0 1.0 $ slow 3 $ sine) # delay (scale 0.0 1.0 $ slow 2 $ rand) # gain "1.2" # speed (scale 1.0 1.5 $ slow 4 $ sine)

t2 $ sound "tozabb*2" # n "<0>" # delay (scale 0.0 1.0 $ slow 4 $ rand) # cutoff "<4000>" # resonance "<0.2>" # legato "<1.0 0.75>" # gain "1.3"

t3 $ degradeBy 0.6 $ sometimes (|+| n "-12") $ every 3 (0.25 <~) $ jux rev $ slow 2 $ off 0.25 (# s "pulse") $ n (off 0.125 (+12) $ off 0.25 (+7) $ slow 2 "d5*2 e6(3,8) a6*2 c6(3,8)") # sound "tozabe*2" # lpf (scale 1000 3000 sine) # lpq 0.2 # room 0.2 # pan (scale 0.0 1.0 sine)

hush
