t1 $ sound "tozabc(3,8)" # n "<1 2 3 4 5 6 7 8 9 10 11 12 13 14 15 16 17 18 19 20 21 22 23 24 25 26 27 28 29 30>" # pan (scale 0.0 1.0 rand) # delay (scale 0.0 1.0 $ slow 2 $ rand) # gain "1.0"

t2 $ sound "tozabf*2" # n "<0>" # delay (scale 0.0 1.0 $ slow 4 $ rand) # cutoff "<4000>" # resonance "<0.2>" # legato "<1.0 0.75>" # gain "0.9"

t3 $ degradeBy 0.5 $ sometimes (|+| n "-12") $ every 3 (0.25 <~) $ jux rev $ slow 2 $ off 0.25 (# s "pulse") $ n (off 0.125 (+12) $ off 0.25 (+7) $ slow 2 "d5*2 e6(3,8) a6*2 c6(3,8)") # sound "tozabc" # lpf "3000" # shape (scale 0.0 0.9 $ slow 3 $ sine)

hush
