t1 $ note "[2 4 8] * [4 8 12]" # s "supergong" # n (sine * 1) # pan (scale 0.0 1.0 $ slow 32 $ rand) # nudge (scale 0.0 1.0 $ slow 16 $ sine) # lpf (scale 5000 8000 $ slow 16 $ sine) # resonance (scale 0.2 0.35 $ slow 18 $ sine)

hush
