t1 $ sound "tozabc*8" # n "<4 5 6>" # delay (scale 0.0 1.0 $ slow 2 $ rand) # gain "0.95 0.8 0.75 0.95"

t2 $ sound "tozabd*2" # n "<0 1 2>" # cutoff "<500 1000 4000>" # resonance "<0.2>" # legato "<0.25 0.5>" # gain "1.0 0.9 0.8 1.0" # pan (scale 0.0 1.0 sine)

t3 $ sound "tozaba*2 tozaba:1*2" # n "<3 4 5>" # end (slow 2 $ sine * 0.04)

t4 $ off 0.125 (# crush 3) $ n (shuffle 4 "0 [3 6] [~ 2] 4") # sound "tozabe" # gain "<0.75 0.8 0.65 0.75>"

hush
