t1 $ stut' 4 (125/4) (# speed "3") $ every 5 (# speed 2) $ every 6 (# up "3 6") $ sound "tozaba*8" # n (irand 5) # pan (scale 0.0 1.0 $ slow 3 $ sine) # speed (scale 0.5 1.0 $ slow 4 $ sine) # delay (scale 0.0 1.0 rand)

hush
