t1 $ foldEvery [3, 4] (fast 2) $ off "<0.5 0.25 0.125>" (slow 2) $ stut' 4 (125/8) (# speed "<1.0 3.0>") $ sound "tozaba*8" # n "<0 1 2 0 1 0 3 3>" # pan (scale 0.0 1.0 $ slow 2 $ sine) # speed (scale 0.01 0.4 tri) # delay (scale 0.01 0.2 saw) # legato "<1.0 0.5 0.25 0.5>"

hush
