t1 $ sound "tozabf" # n "<0 1 1 3>" # vowel "a o i o" # lpf "<500 1000 8000 5000>" # lpq 0.2 # gain "<1.0 0.5 1.0>" # delay 0.1 # delaytime 1.0 # delayfeedback 0.1 # room 0.1 # size 0.1 # cutoff "<250 50>" # resonance 0.1 # legato "<0.5 0.5 0.75 0.75>"

t2 $ fast "<1 2 3 8>" $ sound "tozabb" # n (irand 2) # cutoff 1000 # resonance 0.5

t3 $ weave 32 (pan sine) [sound "tozabb:2",
sound "tozabb:2" # accelerate "[-1 2]/2"
]

t4 $ slow 8 $ sound "tozabh/2" # cutoff 650 # resonance 0.1 # room 0.1 # gain 0.95 # accelerate "[-1 2]/2" # shape "<0.5>"
