t1 $ stack [
-- note "[1 1 1 1 1 1 1 1]" # s "supergong" # n (sine * 4) # nudge (scale 0.0 1.0 $ slow 0.02 $ sine) # gain (scale 1.0 1.2 $ slow 2 $ rand),
-- note "[1 ~ 1 ~]" # s "super808" # n "<1 3>"
note "[1 1 1 1]" # s "tozabi" # n 1 # pan (scale 0.5 0.5 $ slow 8 $ sine) # gain (scale 0.80 0.95 sine) # speed (0)
-- note "[1 ~ 1 ~]/4" # s "tozabh" # n (sine * 8) # gain (scale 0.95 0.97 rand) # legato 1.5
]
