t1 $ stack [
off 0.25 (# speed 2) $ jux rev $ sound "~ tozabb*2" # speed 1,
slow 2 $ jux (0.125 <~) $ off "<0.25>" (# speed 2) $ sound "tozabc:2 sd*2",
slow 2 $ chunk 4 (hurry 2) $ slow 2 $ off 0.25 (|+| n 1) $ sound "tozabd:1(5,8)" # lpf (slow 8 $ scale 500 2000 sine) # lpq 0.2 |+| note "c g7",
jux (0.25 <~) $ sound "tozabb(3,8)" # gain 1.2,
sound "tozabc:1*8" # pan (scale 0.0 1.0 $ slow 2 $ rand) # n (irand 10), sound "tozabc*8" # lpf 3000 # lpq 0.2 # room 0.1 # cut 500 # cutoff 100 # resonance 0.3
]
