t1 $ note "[0 8 12] * [8 4 1]" # s "supergong" # n (sine * 4) # pan (scale 0.0 1.0 $ slow 8 $ sine) # nudge (scale 0.0 1.0 $ slow 16 $ sine) # lpf (scale 5000 8000 $ slow 32 $ sine) # resonance (scale 0.2 0.35 $ slow 18 $ sine)
