d1 $ every 3 (gap 3) $ every 4 (chop 4) $ stack [
every 3 (# up 4) $ slow 2 $ sound "tozas" # speed "1.0" # gain "0.8",
stut' 4 (0.125/4) (# speed 0.8) $ slow 2 $ sound "saw/5" # speed 0.5 # cut 3 # delay 0.1,
whenmod 5 3 (stut' 4 (0.125/4) (# speed 1.5) . (# gain "0.8")) $ (0.25 <~) $ sound "tozab2" # speed 2,
n "0(3,8,<0 2>)" # sound "tozabb"
]

hush
